X:09
T:Untitled Waltz. JBu.09
O:England,South Yorkshire
S:Joshua Burnett’s MS,c1835,S.Yorkshire
M:3/4
L:1/4
Q:3/4=70
R:Waltz
Z:vmp.R.Greig.2010
K:G
G3|g3|fed|cBA|Gg/g/g|ee/e/e|d/B/G/B/A/F/|”dot added”G3:|
|:dd/d/d|def|gg/g/g|dBG|ee/e/e|dBG|A/B/c/d/e/f/|g3:|
|:GBd|g2f|e3|d3|FAc|e2d|B3|G3|
Bdg|bag|gfe|e>dc|B>cd|dcA|A3|G3:|
|:A^ce|a2g|f3|d3|B^df|b2a|g3|e2z|
dfa|c’2f|g3|gfe|ded|dcA|A3G3:|

